X:466
T:Reel 466
M:4/4
K:Dmaj
L:1/8
DE|F>D (3DDD DEDF|A,DDF EFGE|A>D (3DDD DEFD|EA,B,C D2AG|F>D (3DDD A,DDF|A,B,DF GFED|F>E (3CEE B>E (3EDE |dced cAB|c|d|d>D (3DCD A,DFD|E>A, (3CB,A, EA,EA,|A,>D (3DDD A,>D (3DDD |EA,B,A, D2EG|A>D (3DDD ADFD|EEA,E A,B,CE|FAED  (3EDE DEFG|AGFE D2|
